packages/icons/web/flag_gr_small.svg

<svg width="24" height="24" viewBox="0 0 24 24" fill="none" xmlns="http://www.w3.org/2000/svg">
<path fill-rule="evenodd" clip-rule="evenodd" d="M5.5 6H18.5C19.6046 6 20.5 6.89543 20.5 8V16C20.5 17.1046 19.6046 18 18.5 18H5.5C4.39543 18 3.5 17.1046 3.5 16V8C3.5 6.89543 4.39543 6 5.5 6ZM5.5 6.5C4.67157 6.5 4 7.17157 4 8V16C4 16.8284 4.67157 17.5 5.5 17.5H18.5C19.3284 17.5 20 16.8284 20 16V8C20 7.17157 19.3284 6.5 18.5 6.5H5.5Z" fill="#D8DDE1"/>
<g clip-path="url(#clip0)">
<path d="M18.4 6.5H5.6C4.71634 6.5 4 7.22425 4 8.11765V15.8824C4 16.7758 4.71634 17.5 5.6 17.5H18.4C19.2837 17.5 20 16.7758 20 15.8824V8.11765C20 7.22425 19.2837 6.5 18.4 6.5Z" fill="#0D5EAF"/>
<path d="M7.02344 6.5V13.2249M4 9.55679H10.0469M10.0469 8.33409H19.9988M10.0469 10.7795H19.9988M4 13.2249H19.9988M4 15.6704H19.9988" stroke="white" stroke-width="1.05147"/>
</g>
<defs>
<clipPath id="clip0">
<rect x="4" y="6.5" width="16" height="11" fill="white"/>
</clipPath>
</defs>
</svg>

<svg width="24" height="24" fill="none" xmlns="http://www.w3.org/2000/svg">
    <path fill-rule="evenodd" clip-rule="evenodd" d="M5.5 6h13a2 2 0 012 2v8a2 2 0 01-2 2h-13a2 2 0 01-2-2V8a2 2 0 012-2zm0 .5A1.5 1.5 0 004 8v8a1.5 1.5 0 001.5 1.5h13A1.5 1.5 0 0020 16V8a1.5 1.5 0 00-1.5-1.5h-13z" fill="#D8DDE1"/>
    <g clip-path="url(#clip0)">
        <path d="M18.4 6.5H5.6c-.884 0-1.6.724-1.6 1.618v7.764c0 .894.716 1.618 1.6 1.618h12.8c.884 0 1.6-.724 1.6-1.618V8.118c0-.894-.716-1.618-1.6-1.618z" fill="#0D5EAF"/>
        <path d="M7.023 6.5v6.725M4 9.557h6.047m0-1.223h9.952m-9.952 2.446h9.952M4 13.225h15.999M4 15.67h15.999" stroke="#fff" stroke-width="1.051"/>
    </g>
    <defs>
        <clipPath id="clip0">
            <path fill="#fff" d="M4 6.5h16v11H4z"/>
        </clipPath>
    </defs>
</svg>
